!!!COM: Mozart, Wolfgang Amadeus
!!!OTL: String Quartet no. 19 in C Major ("Dissonance")
!!!OMD: Andante cantabile
!!!OMV: 2
!!!SCT1: K<sup>1</sup> 465
!!!SCA: Chronologisch-thematisches Verzeichnis sämtlicher Tonwerke Wolfgang Amade Mozarts (L. von Köchel; 1862, 2/1905, 3/1937, 1947)
!!!SCT2: K<sup>6</sup> 465
!!!YOR: Breitkopf & Härtel Edition
!!!ENC: Frances Bennion
!!!CDT: 1756/1/27/-1791/12/5/
!!!OCY: Österreich
!!!YEC: Copyright (c) 1994, 2000 Center for Computer Assisted Research in the Humanities
!!!YEM: Rights to all derivative editions reserved.
!!!YEM: Refer to licensing agreement for further details.
!!!YEN: United States of America
**kern	**kern	**kern	**kern
*k[b-]	*k[b-]	*k[b-]	*k[b-]
*F:	*F:	*F:	*F:
*clefC	*clefF	*clefG	*clefG
*M3/4	*M3/4	*M3/4	*M3/4
4F	4c	4a	4cc
4AA	4.A	4.c	4.f
4C	.	.	.
.	16B-	8e	8g
.	16G	.	.
=2	=2	=2	=2
2FF	4E	4g	4b-
.	8F	8f	4a
.	8F	8f	.
4r	8G	8e	8r
.	8A	8e-	8f
=3	=3	=3	=3
8F	8B-	8d	8f
8r	4d	4f	4b-
8D	.	.	.
8r	4f	4b-	4dd
8BB-	.	.	.
8r	8b-	8dd	8ff
=4	=4	=4	=4
4FF	4f	8cc	8ee
.	.	16b-	16dd
.	.	32a	32cc
.	.	32b-	32dd
8r	2r	4a	4cc
8F	.	.	.
8G	.	4r	4r
8A	.	.	.
=5	=5	=5	=5
8BB	4d	4f	2g
8BB	.	.	.
8C	2c	4e	.
8C	.	.	.
8FF#	.	[4e-	4a
8FF#	.	.	.
=6	=6	=6	=6
8GG	4F#	4e-]	4cc
8GG	.	.	.
8GG	4G	8d	4.b-
8GG	.	8e	.
8AA	4C	4f	.
8AA	.	.	[8a
=7	=7	=7	=7
8BB-	8D	4d	16a]
.	.	.	16g
8BB-	16G	.	16b-
.	16B-	.	16d
8C	4A	4c	4f
8C	.	.	.
8C	4c	4e	4g
8C	.	.	.
=8	=8	=8	=8
4FF	4c	8.f	8.a
.	.	16g	16b-
8r	2r	4a	4cc
8F	.	.	.
8c	.	4r	4r
8B-	.	.	.
=9	=9	=9	=9
8A	4c	4.cc	4ff
8A	.	.	.
8G	8b-	.	8ee
8F	8a	8cc	8ff
8E	8g	8cc	8gg
8D	8f	8cc	8aa
=10	=10	=10	=10
4C	4e	4cc	[8bb-
.	.	.	32bb-]
.	.	.	32gg
.	.	.	32ee
.	.	.	32cc
8r	8r	8r	8b-
8C	8e	4b-	4r
8E	8g	.	.
8F	8f	8a	16a
.	.	.	16ff
=11	=11	=11	=11
8BB-	2f	8.dd	8.ff
8BB-	.	.	.
.	.	16b-	16dd
8C	.	4.a	[4cc
8C	.	.	.
8C	4e	.	16cc]
.	.	.	16cc#
8C	.	16b-	16dd
.	.	16g	16b-
=12	=12	=12	=12
4F	8c	16g	16b-
.	.	16f	16a
.	16B-	16e	16g
.	16A	16f	16f
8r	4.A	[4c	4f
8FF	.	.	.
8AA	.	16c]	4r
.	.	16c#	.
8C	16B-	16d	.
.	16G	16B-	.
=13	=13	=13	=13
4F	8F	8A	8r
.	8f	8a	16cc
.	.	.	16b
8r	8f	8a	8dd
16F	8f	8a	8cc
16E	.	.	.
8G	8c	8a	8r
8F	8c	8a	8cc
=14	=14	=14	=14
4E	8c	8g	8r
.	8e	8g	16cc
.	.	.	16b
8r	8e	8g	8dd
16E	8e	8g	8cc
16D	.	.	.
8F	8c	8g	8r
8E	8c	8g	8cc
=15	=15	=15	=15
4D	8d	8cc	8r
.	8d	8cc	16ff
.	.	.	16ee
8r	8d	8cc	8gg
16G	8d	8cc	8ff
16F#	.	.	.
8A	8d	8b	8r
8G	8d	8b	8ff
=16	=16	=16	=16
4C	8c	8cc	8r
.	8g	8cc	16ee
.	.	.	16dd
8r	8g	8cc	8ff
16c	8g	8cc	8ee
16B	.	.	.
8d	8g	8cc	8r
8c	8g	8cc	8ee
=17	=17	=17	=17
4E	8b-	8cc	8r
.	8b-	8cc	16gg
.	.	.	16ff#
8r	8b-	8cc	8aa
16E	8b-	8cc	8gg
16D	.	.	.
8F	8b-	8cc	8r
8E	8b-	8cc	8gg#
=18	=18	=18	=18
4F	8a	8cc	8r
.	8f	8cc	16aa
.	.	.	16gg#
8r	8f	8cc	8bb-
16F	8f	8cc	8aa
16E	.	.	.
8G	8c	8cc	8r
8F	8c	8cc	8aa
=19	=19	=19	=19
4F#	8A	8c	8r
.	8A	8c	16dd
.	.	.	16cc#
8r	8A	8c	8ee
16F#	8A	8c	8dd
16E	.	.	.
8G	8A	8c	8r
8F#	8A	8c	8dd
=20	=20	=20	=20
4G	8G	8B	8dd
.	16B	16d	8g
.	16A	16c	.
8r	8c	8e	2g
16GG	8B	8d	.
16FF#	.	.	.
8AA	8r	8r	.
8GG	16c	16e	.
.	16B	16d	.
=21	=21	=21	=21
8r	8d	8f	2g
16GG	8c	8e	.
16FF#	.	.	.
8AA	8r	8r	.
8GG	16d	16f	.
.	16c#	16e	.
8r	8e	8g	[4gg
16GG	8d	8f	.
16FF#	.	.	.
=22	=22	=22	=22
8AA	8r	8r	4gg]
8GG	16e	16g	.
.	16d#	16f#	.
8r	8f	8a	[2gg
8GG	8e	8g	.
8BB	8d	8f	.
8C	8c	8e	.
=23	=23	=23	=23
4G	4B	4d	8gg]
.	.	.	16gg
.	.	.	16ff#
2r	2r	2r	16aa
.	.	.	16gg
.	.	.	16ff
.	.	.	16ee
.	.	.	16gg
.	.	.	16ff
.	.	.	16ee
.	.	.	16dd
=24	=24	=24	=24
8G	8B	8f	16cc#
.	.	.	16dd
8G	8B	8f	16cc#
.	.	.	16dd
8G	8B	8f	16cc#
.	.	.	16dd
4.r	4.r	4.r	8r
.	.	.	32r
.	.	.	32dd
.	.	.	32ff
.	.	.	32ee
.	.	.	32dd
.	.	.	32cc
.	.	.	32b
.	.	.	32a
=25	=25	=25	=25
8B	8d	8f	16a
.	.	.	16g
8B	8d	8f	16a
.	.	.	16g
8B	8d	8f	16a
.	.	.	16g
4.r	4.r	4.r	4.r
=26	=26	=26	=26
16C	2.r	2.r	2.r
16BB	.	.	.
16C	.	.	.
16GG	.	.	.
16C	.	.	.
16BB	.	.	.
16C	.	.	.
16GG	.	.	.
16C	.	.	.
16BB	.	.	.
16C	.	.	.
16GG	.	.	.
=27	=27	=27	=27
16D	4f	2G	4c
16C#	.	.	.
16D	.	.	.
16GG	.	.	.
16D	8f	.	4B
16C#	.	.	.
16D	8f	.	.
16GG	.	.	.
16D	8f	4r	4r
16C#	.	.	.
16D	8f	.	.
16GG	.	.	.
=28	=28	=28	=28
16C	4f	4cc	2g
16BB	.	.	.
16C	.	.	.
16GG	.	.	.
16C	4e	8cc	.
16BB	.	.	.
16C	.	8cc	.
16GG	.	.	.
16C	4r	8cc	4r
16BB	.	.	.
16C	.	8cc	.
16GG	.	.	.
=29	=29	=29	=29
16D	2g	4cc	4ff
16C#	.	.	.
16D	.	.	.
16GG	.	.	.
16D	.	4b	8ff
16C#	.	.	.
16D	.	.	8ff
16GG	.	.	.
16D	4r	4r	8ff
16C#	.	.	.
16D	.	.	8ff
16GG	.	.	.
=30	=30	=30	=30
16C	4.g	4.b-	4ff
16BB	.	.	.
16C	.	.	.
16GG	.	.	.
16C	.	.	8ee
16BB	.	.	.
16C	8g	8ee	8bb-
16GG	.	.	.
16C	8g	8ee	8bb-
16BB	.	.	.
16C	8g	8ee	8bb-
16GG	.	.	.
=31	=31	=31	=31
4EE	4c	4gg 4b-	4bb- 4cc
4FF	4c	4ff 4a	4aa 4cc
4r	4r	4r	4r
=32	=32	=32	=32
2.r	4f	4cc 4a	4dd
.	8f	8cc 8a	8dd
.	8f	8cc 8a	8dd
.	8f	8cc 8a	8dd
.	8f	8cc 8a	8dd
=33	=33	=33	=33
2.r	4f	4cc 4a-	16dd
.	.	.	32ee-
.	.	.	32ff
.	.	.	16ee-
.	.	.	16dd
.	8f	8cc 8a-	8dd
.	8f	8cc 8a-	8dd
.	8f	8cc 8a-	8dd
.	8f	8cc 8a-	8dd
=34	=34	=34	=34
4F#	2c	4d	8.a
.	.	.	16dd
4G	.	4e	4cc
4G#	4d	4f	4b
=35	=35	=35	=35
4A	8c	8e	2cc
.	8C	8c	.
4AA	8C#	8c#	.
.	8D	8d	.
4GG	8E-	8e-	8.b-
.	8E	8e	.
.	.	.	32a
.	.	.	32b-
=36	=36	=36	=36
4FF	8F	8f	8a
.	8f	8cc	4aa
4r	8f	8cc	.
.	8f	8cc	16aa
.	.	.	16bb
4F	8f	8cc	16ddd
.	.	.	16ccc
.	8f	8cc	16bb
.	.	.	16aa
=37	=37	=37	=37
4E	2.g	8cc	4.gg
.	.	4gg	.
4D	.	.	.
.	.	8ff#	8aa
4C	.	8ff	8bb
.	.	8ee	8ccc
=38	=38	=38	=38
8G	8r	8r	16gg
.	.	.	16ff#
8G	8e	8cc	16ff
.	.	.	16ee
8G	8f	8cc	2dd
8G	8f	8cc	.
8G	8f	8b	.
8G	8f	8b	.
=39	=39	=39	=39
8C	2.e	2.cc	4cc
16C	.	.	.
16BB	.	.	.
8D	.	.	8r
8C	.	.	16cc
.	.	.	16b
8r	.	.	8dd
8C	.	.	8cc
=40	=40	=40	=40
8r	2.f	2.b	8ee
16C	.	.	8dd
16BB	.	.	.
8D	.	.	8r
8C	.	.	16dd
.	.	.	16cc#
8r	.	.	8ee
8C	.	.	8dd
=41	=41	=41	=41
8r	2g	2b-	8ff
16C	.	.	8ee
16BB	.	.	.
8D	.	.	8r
8C	.	.	16ff
.	.	.	16ee
8r	4f	[4a	8gg
16C	.	.	8ff
16BB	.	.	.
=42	=42	=42	=42
8D	4c	4a]	8r
8C	.	.	16gg
.	.	.	16ff#
8r	2B-	2e	8aa
16C	.	.	8gg
16BB	.	.	.
8D	.	.	8r
8C	.	.	16aa
.	.	.	16gg
=43	=43	=43	=43
8r	4A	4f	8bb-
16C	.	.	8aa
16BB	.	.	.
8D	4F	4A	8r
8C	.	.	16bb-
.	.	.	16aa
8r	4E	4G	8ccc
16C	.	.	8bb-
16BB	.	.	.
=44	=44	=44	=44
8D	2E	2G	8r
8C	.	.	16b-
.	.	.	16a
2r	.	.	8cc
.	.	.	4b-
.	4r	4r	.
.	.	.	8b
=45	=45	=45	=45
4F	4c	16.a	16.cc
.	.	32f	32a
.	.	16.a	16.cc
.	.	32f	32a
4AA	4.A	4.c	4.f
4C	.	.	.
.	16B-	8e	8g
.	16G	.	.
=46	=46	=46	=46
2FF	4E	4g	4b-
.	8F	8f	4a
.	8F	8f	.
4r	8G	8e	8r
.	8A	8e-	[8f
=47	=47	=47	=47
8F	8B-	8d	16f]
.	.	.	16d
8r	4d	4f	8.b-
8D	.	.	.
.	.	.	16f
8r	4f	4b-	8.dd
8BB-	.	.	.
.	.	.	16b-
8r	8b-	[8dd	[8ff
=48	=48	=48	=48
4FF	4f	16dd]	16ff]
.	.	16cc#	16ee
.	.	16cc	16ee-
.	.	16b-	16dd
8r	2r	4a	4cc
8F	.	.	.
8D	.	4r	4r
8C	.	.	.
=49	=49	=49	=49
8BB	4d	4f	4.g
8BB	.	.	.
8C	2c	4e	.
8C	.	.	32a
.	.	.	32g
.	.	.	32f#
.	.	.	32g
8FF#	.	[4e-	8b-
8FF#	.	.	8a
=50	=50	=50	=50
8GG	8F#	8e-]	8cc
8GG	8G	8d	8b
8CC#	4G	4e	4.b-
8CC#	.	.	.
8DD	4F	4f	.
8DD	.	.	[8a
=51	=51	=51	=51
8BB-	4B-	4d	16a]
.	.	.	16g
8BB-	.	.	16b-
.	.	.	16d
8C	4A	4c	8f
8C	.	.	8f#
8C	4c	4e	8g
8C	.	.	8g#
=52	=52	=52	=52
4FF	4c	8.f	8.a
.	.	16g	16b-
8r	2r	4a	4cc
8c	.	.	.
8B	.	4r	4r
8B-	.	.	.
=53	=53	=53	=53
8A	4c	4.cc	8.ff
8A	.	.	.
.	.	.	32gg
.	.	.	32ff
8G	8b-	.	8ee
8F	8a	8cc	8ff
8E	8g	8cc	8gg
8D	8f	8cc	8aa
=54	=54	=54	=54
4C	4e	4cc	[8bb-
.	.	.	32bb-]
.	.	.	32gg
.	.	.	32ee
.	.	.	32cc
8r	8r	8r	8b-
8C	8e	4b-	4r
8C#	8g	.	.
8D	8f	8a	16a
.	.	.	16ff
=55	=55	=55	=55
8BB-	4.f	8.dd	8.ff
8BB-	.	.	.
.	.	16b-	16dd
8C	.	16a	16cc
.	.	16ff	16aa
8C	8c	16ee	16gg
.	.	16dd	16ff
8C	8r	16cc	16ee
.	.	16b-	16dd
8C	8c	16a	16cc
.	.	16g	16b-
=56	=56	=56	=56
4F	8c	16g	16b-
.	.	16f	16a
.	16B-	16e	16g
.	16A	16f	16f
8r	16A	16c	4f
.	16f	16a	.
8AA	16e	16g	.
.	16d	16f	.
8C	16c	16e	4r
.	16B-	16d	.
8EE	16A	16c	.
.	16G	16B-	.
=57	=57	=57	=57
8EE-	8F	8A	[4cc
8EE-	8F	8A	.
8EE-	8F	8A	16cc]
.	.	.	16gg
8EE-	8F	8A	16ff
.	.	.	16ee-
8E-	8A	8f	16dd
.	.	.	16cc
8E-	8c	8f	16b-
.	.	.	16a
=58	=58	=58	=58
8r	8d	8f	8cc
16D	8d	8f	8b-
16C	.	.	.
8E-	8B-	8f	8r
8D	8B-	8f	16b-
.	.	.	16a
4r	8d	8f	8cc
.	8d	8f	8b
=59	=59	=59	=59
8r	8e-	8f	8dd
16AA	8e-	8f	8cc
16GG	.	.	.
8BB-	8e-	8f	8r
8AA	8e-	8f	16cc
.	.	.	16b
4r	8e-	8f	8dd
.	8e-	8f	8cc
=60	=60	=60	=60
8r	8c	8f#	8ee-
16A	8c	8f#	8dd
16G	.	.	.
8B-	8c	8f#	8r
8A	8c	8f#	16dd
.	.	.	16cc#
4r	8c	8f#	8ee-
.	8c	8f#	8dd
=61	=61	=61	=61
8r	8B-	8g	4.dd
16G	8B-	8g	.
16F#	.	.	.
8A	8B-	8g	.
8G	8d	8g	16bb-
.	.	.	16aa
4r	8d	8g	8ccc
.	8d	8g	8bb-
=62	=62	=62	=62
8r	8e	8g	8b-
16C#	8e	8g	8a
16BB	.	.	.
8D	8e	8g	8r
8C#	8e	8g	16a
.	.	.	16g#
4r	8e	8g	8b-
.	8e	8g	8a
=63	=63	=63	=63
8r	8d	8f	4.a
16D	8d	8f	.
16C#	.	.	.
8E	8d	8f	.
8D	8d	8a	16ff
.	.	.	16ee
4r	8d	8a	8gg
.	8d	8a	8ff
=64	=64	=64	=64
8r	8d	8f	8a
16BB-	8d	8f	8g
16AA	.	.	.
8C	8d	8f	8r
8BB-	8d	8f	16g
.	.	.	16f#
8r	8d	8f	8a
8BB-	8d	8f	8g
=65	=65	=65	=65
8r	8d	8f	8gg
16BB	8d	8g	8ff
16AA	.	.	.
8C	8f 8d	8g	8r
8BB	8f 8d	8g	16g
.	.	.	16f#
8r	8f 8d	8g	8a
8BB	8f 8d	8g	8g
=66	=66	=66	=66
8r	8f 8c	8g	8gg
16C	8f 8c	8g	8ff
16BB	.	.	.
8D	8f 8c	8g	8r
8C	8f 8c	8g	16g
.	.	.	16f#
8r	8f 8c	8g	8a
8C	8f 8c	8g	8g
=67	=67	=67	=67
8r	8f 8B	8g	8gg
16D-	8f 8B	8g	8ff
16C	.	.	.
8E-	8f 8B	8g	8r
8D-	8f	8b	16gg
.	.	.	16ff
8r	8f	8b	8aa-
8D-	8f	8b	8ff
=68	=68	=68	=68
4C	8g	8cc	16ff
.	.	.	16ee
.	16f	8g	16dd
.	16e	.	16cc
4CC	8r	8r	[2cc
.	16e	16g	.
.	16d	16f#	.
8r	8f	8a	.
16E	8e	8g	.
16C	.	.	.
=69	=69	=69	=69
8G	8e	8b-	8cc]
8F	8f	8a	16cc
.	.	.	16b
8B	8r	8r	8dd
8c	16f	16a	8cc
.	16e	16g#	.
8r	8g	8b-	[4cc
16F	8f	8a	.
16C	.	.	.
=70	=70	=70	=70
8A	8f#	8cc	8cc]
8G	8g	8b-	16ccc
.	.	.	16bb
8B	8r	8r	8ddd
8c	16g	16b-	8ccc
.	16f#	16a	.
8r	8a	8cc	[4ccc
16G	8g	8b-	.
16C	.	.	.
=71	=71	=71	=71
8B-	8e	8dd	2.ccc_
8A	4f	8cc	.
8A-	.	8b	.
8G	8e	8b-	.
8F	8f	8a	.
8BB	8f	8a-	.
=72	=72	=72	=72
4C	4e	4g	8ccc]
.	.	.	16ccc
.	.	.	16bb
2r	2r	2r	16ddd
.	.	.	16ccc
.	.	.	16bb-
.	.	.	16aa
.	.	.	16ccc
.	.	.	16bb-
.	.	.	16aa
.	.	.	16gg
=73	=73	=73	=73
8C	8e	8b-	16ff#
.	.	.	16gg
8C	8e	8b-	16ff#
.	.	.	16gg
8C	8e	8b-	16ff#
.	.	.	16gg
4.r	4.r	4.r	8r
.	.	.	32r
.	.	.	32gg
.	.	.	32bb-
.	.	.	32aa
.	.	.	32gg
.	.	.	32ff
.	.	.	32ee
.	.	.	32dd
=74	=74	=74	=74
8e	8g	8b-	16dd
.	.	.	16cc
8e	8g	8b-	16dd
.	.	.	16cc
8e	8g	8b-	16dd
.	.	.	16cc
4.r	4.r	4.r	4.r
=75	=75	=75	=75
16F	2.r	2.r	2.r
16E	.	.	.
16F	.	.	.
16C	.	.	.
16F	.	.	.
16E	.	.	.
16F	.	.	.
16C	.	.	.
16F	.	.	.
16E	.	.	.
16F	.	.	.
16C	.	.	.
=76	=76	=76	=76
16G	4b-	2c	4f
16F#	.	.	.
16G	.	.	.
16C	.	.	.
16G	8b-	.	4e
16F#	.	.	.
16G	8b-	.	.
16C	.	.	.
16G	8b-	4r	4r
16F#	.	.	.
16G	8b-	.	.
16C	.	.	.
=77	=77	=77	=77
16F	4b-	4ff	2cc
16E	.	.	.
16F	.	.	.
16C	.	.	.
16F	4a	8ff	.
16E	.	.	.
16F	.	8ff	.
16C	.	.	.
16F	4r	8ff	4r
16E	.	.	.
16F	.	8ff	.
16C	.	.	.
=78	=78	=78	=78
16G	2cc	4ff	4bb-
16F#	.	.	.
16G	.	.	.
16C	.	.	.
16G	.	4ee	8bb-
16F#	.	.	.
16G	.	.	8bb-
16C	.	.	.
16G	4r	4r	8bb-
16F#	.	.	.
16G	.	.	8bb-
16C	.	.	.
=79	=79	=79	=79
16F	4.cc	4.ee-	4bb-
16E	.	.	.
16F	.	.	.
16C	.	.	.
16F	.	.	8aa
16E	.	.	.
16F	8cc	8aa	8eee-
16C	.	.	.
16F	8cc	8aa	8eee-
16E	.	.	.
16F	8cc	8aa	8eee-
16C	.	.	.
=80	=80	=80	=80
4AA	4f	4ccc 4ee-	4eee- 4ff
4BB-	4f	4bb- 4dd	4ddd 4ff
4r	4r	4r	4r
=81	=81	=81	=81
2.r	4B-	4f 4d	4g
.	8B-	8f 8d	8g
.	8B-	8f 8d	8g
.	8B-	8f 8d	8g
.	8B-	8f 8d	8g
=82	=82	=82	=82
2.r	4B-	4f 4d-	16g
.	.	.	32a-
.	.	.	32b-
.	.	.	16a-
.	.	.	16g
.	8B-	8f 8d-	8g
.	8B-	8f 8d-	8g
.	8B-	8f 8d-	8g
.	8B-	8f 8d-	8g
=83	=83	=83	=83
4BB	2F	4G	8.d
.	.	.	16g
4C	.	4A	4f
4C#	4E	4B-	8.g
.	.	.	16f
=84	=84	=84	=84
4D	4F	4A	4f
2r	2r	2r	2r
=85	=85	=85	=85
16FF	4F	2.r	2.r
16EE	.	.	.
16FF	.	.	.
16CC	.	.	.
16FF	8F	.	.
16EE	.	.	.
16FF	8F	.	.
16CC	.	.	.
16FF	8F	.	.
16EE	.	.	.
16FF	8F	.	.
16CC	.	.	.
=86	=86	=86	=86
16GG	4F	4B-	2.r
16FF#	.	.	.
16GG	.	.	.
16CC	.	.	.
16GG	4E	8B-	.
16FF#	.	.	.
16GG	.	8B-	.
16CC	.	.	.
16GG	4r	8B-	.
16FF#	.	.	.
16GG	.	8B-	.
16CC	.	.	.
=87	=87	=87	=87
16FF	2c	4B-	4f
16EE	.	.	.
16FF	.	.	.
16CC	.	.	.
16FF	.	4A	8f
16EE	.	.	.
16FF	.	.	8f
16CC	.	.	.
16FF	4r	4r	8f
16EE	.	.	.
16FF	.	.	8f
16CC	.	.	.
=88	=88	=88	=88
16GG	4b-	2c	4f
16FF#	.	.	.
16GG	.	.	.
16CC	.	.	.
16GG	8b-	.	4e
16FF#	.	.	.
16GG	8b-	.	.
16CC	.	.	.
16GG	8b-	4r	4r
16FF#	.	.	.
16GG	8b-	.	.
16CC	.	.	.
=89	=89	=89	=89
16FF	4b-	4cc	2c
16EE	.	.	.
16FF	.	.	.
16CC	.	.	.
16FF	4a-	8cc	.
16EE	.	.	.
16FF	.	8cc	.
16CC	.	.	.
16AA-	4f	8cc	4r
16GG	.	.	.
16AA-	.	8cc	.
16FF	.	.	.
=90	=90	=90	=90
16BB-	2f	4cc	4dd-
16AA	.	.	.
16BB-	.	.	.
16FF	.	.	.
16D-	.	[2b-	8dd-
16C	.	.	.
16D-	.	.	8dd-
16BB-	.	.	.
16GG	[4e-	.	8dd-
16FF	.	.	.
16GG	.	.	8dd-
16EE-	.	.	.
=91	=91	=91	=91
16AA-	2e-]	4b-]	4dd-
16GG	.	.	.
16AA-	.	.	.
16EE-	.	.	.
16C	.	[2a-	8cc
16BB-	.	.	.
16C	.	.	8cc
16AA-	.	.	.
16FF	[4d	.	8cc
16EE-	.	.	.
16FF	.	.	8cc
16DD	.	.	.
=92	=92	=92	=92
16GG	4.d]	8a-]	8cc
16FF	.	.	.
16GG	.	4g	8b
16DD	.	.	.
16BB-	.	.	8b-
16AA-	.	.	.
16BB-	8d-	8g	8b-
16GG	.	.	.
16EE	[4c	8g	8b-
16DD	.	.	.
16EE	.	8g	8b-
16CC	.	.	.
=93	=93	=93	=93
16FF	4.c]	8g	8b-
16EE	.	.	.
16FF	.	4f	8a
16CC	.	.	.
16AA-	.	.	8a-
16GG	.	.	.
16AA-	8c	8f	8a-
16FF	.	.	.
16D-	8A-	8f	8a-
16C	.	.	.
16D-	8F	8f	8a-
16C	.	.	.
=94	=94	=94	=94
4BB-	4f 4d-	4g	4g
8BB-	8f 8d-	8g	2r
8BB-	8f 8d-	8g	.
8BB-	8f 8d-	8g	.
8BB-	8f 8d-	8g	.
=95	=95	=95	=95
4BB-	4e 4d-	4g	16gg
.	.	.	32aa-
.	.	.	32bb-
.	.	.	16aa-
.	.	.	16gg
8BB-	8e 8d-	8g	8gg
8BB-	8e 8d-	8g	8gg
4BB	4f 4d	4a-	16ff
.	.	.	32gg
.	.	.	32aa-
.	.	.	16gg
.	.	.	16ff
=96	=96	=96	=96
8BB	8f 8d	8a-	8ff
8BB	8f 8d	8a-	8ff
4C	4f 4c	4a	4ff
4C#	4B-	4e	8.gg
.	.	.	16ff
=97	=97	=97	=97
4D	8A	8f	4ff
.	8F	8f	.
4C	8F#	8f#	4ee
.	8G	8g	.
4FF	8A-	8a-	4ee-
.	8A	8a	.
=98	=98	=98	=98
4BB-	8B-	8b-	8cc#
.	8B-	8f	[8dd
4r	8B-	8f	32dd]
.	.	.	32ee
.	.	.	32dd
.	.	.	32cc#
.	8B-	8f	32dd
.	.	.	32ee
.	.	.	32dd
.	.	.	32ee
4BB-	8B-	8f	16gg
.	.	.	16ff
.	8B-	8f	16ee
.	.	.	16dd
=99	=99	=99	=99
4AA	2.c	8f	4.cc
.	.	4cc	.
4GG	.	.	.
.	.	8b	8dd
4FF	.	8b-	8ee
.	.	8a	8ff
=100	=100	=100	=100
8C	8r	8r	16cc
.	.	.	16b
8C	8A	8f	16b-
.	.	.	16a
8C	8B-	8f	2g
8C	8B-	8f	.
8C	8B-	8e	.
8C	8B-	8e	.
=101	=101	=101	=101
8FF	16A	8f	4f
.	16A	.	.
8r	16A	16c	.
.	16A	16B	.
8AA	16F	8d	2r
.	16F	.	.
8r	16F	8c	.
.	16F	.	.
8FF	16A	8r	.
.	16A	.	.
8r	16A	8c	.
.	16A	.	.
=102	=102	=102	=102
8GG	16E	8r	2b-
.	16E	.	.
8r	16E	16c	.
.	16E	16B	.
8EE	16G	8d	.
.	16G	.	.
8r	16G	8c	.
.	16G	.	.
8BB-	16E	8r	8.g
.	16E	.	.
8r	16E	8c	.
.	16G	.	16e
=103	=103	=103	=103
8AA	16F	8r	2cc
.	16F	.	.
8r	16F	16f	.
.	16F	16e	.
8AA	16F	8g	.
.	16F	.	.
8r	16F	8f	.
.	16F	.	.
8BB-	16F	8r	4dd
.	16F	.	.
8r	16F	8f	.
.	16F	.	.
=104	=104	=104	=104
8C	16A	8r	2f
.	16A	.	.
8r	16A	16c	.
.	16A	16B	.
8C	16A	8d	.
.	16A	.	.
8r	16A	8c	.
.	16A	.	.
8CC	16E	8r	4g
.	16E	.	.
8r	16E	8c	.
.	16E	.	.
=105	=105	=105	=105
8FF	16G	8r	4b-
.	16G	.	.
8r	16G	16c	.
.	16G	16B	.
8F	16F	8d	4a
.	16F	.	.
8r	16F	8c	.
.	16F	.	.
8A	16f	8r	4r
.	16f	.	.
8r	16f	8c	.
.	16f	.	.
=106	=106	=106	=106
8G	16e	8r	2bb-
.	16e	.	.
8r	16e	16cc	.
.	16e	16b	.
8E	16g	8dd	.
.	16g	.	.
8r	16g	8cc	.
.	16g	.	.
8B-	16e	8r	8.gg
.	16e	.	.
8r	16e	8cc	.
.	16g	.	16ee
=107	=107	=107	=107
8A	16f	8r	4.ccc
.	16f	.	.
8r	16f	16ff	.
.	16f	16ee	.
4A	16e-	8gg	.
.	16e-	.	.
.	16e-	8ff	8ccc#
.	16e-	.	.
8B-	16d	8r	8ddd
.	16d	.	.
8B	16a-	8ff	8fff
.	16a-	.	.
=108	=108	=108	=108
8c	16a	8r	2ff
.	16a	.	.
8r	16a	16cc	.
.	16a	16b	.
8C	16a	8dd	.
.	16a	.	.
8r	16a	8cc	.
.	16a	.	.
8C	16e	8r	8.gg
.	16e	.	.
8r	16e	8b-	.
.	16e	.	32ff
.	.	.	32gg
=109	=109	=109	=109
8r	16f	16a	4ff
.	16c	16a	.
16F	16c	16a	.
16E	16c	16a	.
8G	16c	16a	4r
.	16c	16a	.
8F	16c	16a	.
.	16c	16a	.
8r	16c	16a	8ee-
.	16c	16a	.
8F	16c	16a	8r
.	16c	16a	.
=110	=110	=110	=110
8r	16B-	16b-	8dd
.	16B-	16f	.
16F	16B-	16f	8r
16E	16B-	16f	.
8G	16B-	16f	8dd-
.	16B-	16e	.
8F	16B-	16e	8r
.	16B-	16e	.
8r	16A	16f	[4cc
.	16A	16e-	.
8F	16A	16e-	.
.	16A	16e-	.
=111	=111	=111	=111
8r	16f	16d	8cc]
.	16f	16d	.
16FF	16f	16d	8b
16EE	16f	16d	.
8GG	16d-	16e	4b-
.	16d-	16e	.
8FF	16d-	16e	.
.	16d-	16e	.
8r	16c	16f	4a
.	16c	16f	.
8FF	16c	16f	.
.	16c	16f	.
=112	=112	=112	=112
8r	16E	16d-	2g
.	16E	16d-	.
16FF	16E	16d-	.
16EE	16E	16d-	.
8GG	16E	16c	.
.	16E	16c	.
8FF	16E	16c	.
.	16E	16c	.
8r	16E	16B-	4cc
.	16E	16B-	.
8FF	16E	16B-	.
.	16E	16B-	.
=113	=113	=113	=113
16FF	16F	16A	8f
16EE	16C	16A	.
16FF	16C	16A	8r
16CC	16C	16A	.
16FF	16C	16A	8f
16EE	16C	16A	.
16FF	16C	16A	8r
16CC	16C	16A	.
16FF	16C	16A	8f
16EE	16C	16A	.
16FF	16C	16A	8r
16CC	16C	16A	.
=114	=114	=114	=114
2FF	2C	2A	2f
4r	4r	4r	4r
==	==	==	==
*-	*-	*-	*-
!!!RWG1: This file contains only pitch and duration data.
!!!RWG2: Transposing instruments are not transposed.
!!!RWG3: Spines may have incompatible meters.
!!!RWG4: Durations of rests and tied notes may be interpreted.
!!!RWG: Key is interpreted using the Humdrum key tool.
!!!AFT: stage1
!!!END: 1997/04/15
!!!KEY: 965472795
!!!EMD: Converted from MuseData to Humdrum Dec 16, 2000, by Andreas Kornstaedt using muse2kern.
!!!EMD: Manual editing by Craig Sapp, Nov 2001
